app/img/icn-big-image.svg

<?xml version="1.0" encoding="UTF-8" standalone="no"?>
<svg width="30px" height="30px" viewBox="0 0 30 30" version="1.1" xmlns="http://www.w3.org/2000/svg" xmlns:xlink="http://www.w3.org/1999/xlink">
    <!-- Generator: Sketch 48.2 (47327) - http://www.bohemiancoding.com/sketch -->
    <title>icn-big-image</title>
    <desc>Created with Sketch.</desc>
    <defs>
        <path d="M3,6.99420208 C3,5.34054993 4.34177063,4 5.99109042,4 L24.0089096,4 C25.6608432,4 27,5.34331197 27,6.99420208 L27,21.0057979 C27,22.6594501 25.6582294,24 24.0089096,24 L5.99109042,24 C4.33915679,24 3,22.656688 3,21.0057979 L3,6.99420208 Z M5,7.99406028 L5,20.0059397 C5,21.1054862 5.89130934,22 6.99079514,22 L23.0092049,22 C24.1017876,22 25,21.1072288 25,20.0059397 L25,7.99406028 C25,6.89451376 24.1086907,6 23.0092049,6 L6.99079514,6 C5.89821238,6 5,6.8927712 5,7.99406028 Z M13,18 L17,11 L22,20 L8,20 L11,15 L13,18 Z M10,12 C8.8954305,12 8,11.1045695 8,10 C8,8.8954305 8.8954305,8 10,8 C11.1045695,8 12,8.8954305 12,10 C12,11.1045695 11.1045695,12 10,12 Z" id="path-1"></path>
    </defs>
    <g id="Symbols" stroke="none" stroke-width="1" fill="none" fill-rule="evenodd">
        <g id="icn-big-image">
            <mask id="mask-2" fill="white">
                <use xlink:href="#path-1"></use>
            </mask>
            <use id="glyph" fill="#8DA8B8" xlink:href="#path-1"></use>
        </g>
    </g>
</svg>

<svg width="30" height="30" xmlns="http://www.w3.org/2000/svg" xmlns:xlink="http://www.w3.org/1999/xlink"><defs><path d="M3 6.994A2.994 2.994 0 0 1 5.991 4H24.01A2.994 2.994 0 0 1 27 6.994v14.012A2.994 2.994 0 0 1 24.009 24H5.99A2.994 2.994 0 0 1 3 21.006V6.994zm2 1v12.012C5 21.106 5.891 22 6.99 22h16.02c1.092 0 1.99-.893 1.99-1.994V7.994C25 6.894 24.109 6 23.01 6H6.99C5.899 6 5 6.893 5 7.994zM13 18l4-7 5 9H8l3-5 2 3zm-3-6a2 2 0 1 1 0-4 2 2 0 0 1 0 4z" id="a"/></defs><use fill="#8DA8B8" xlink:href="#a" fill-rule="evenodd"/></svg>
